X:1
T:Erlkönig. Ballade von Goethe.
T:Erlkönig. Ballade von Goethe.
T: LE ROIDES AULNES.
T:Paroles francaises de Belanger.
T:Franz Schubert
T:D. S C.No 766
T:D. S C.No 766
T:D. S C.No 766
T:D. S C.No 766
T:D. S C.No 766
T:D. S C.No 766
T:D. S C.No 766
T:D. S C.No 766
T:D. S C.No 766
T:D. S C.No 766
T:D. S C.No 766
Z:D. S C.No 766
%%score ( 1 2 3 ) 4 { 5 | ( 6 7 ) }
L:1/8
Q:1/4=152
M:4/4
K:Bb
V:1 treble nm="Voice"
V:2 treble 
V:3 treble 
V:4 treble nm="Voice"
V:5 treble nm="Pianoforte."
V:6 bass 
V:7 bass 
V:1
"^Schnell. (.)""^Jl Red 'Alni.""^Musik von FR.SCHUBERT.op.1.""^Wien,bei A. Diabelli und Comp.Graben No 1133." z8 | %1
w: |
w: |
 z8 | z8 | z8 | z8 | z8 | z8 | z8 | z8 | z8 | z8 | z8 | z8 | z8 | z4 z2 A2 | B4 A2 G2 | A6 A2 | %17
w: |||||||||||||Wer|rei- tet so|spät durch|
w: |||||||||||||Vo-|yez ce *|tier hâ-|
 B4 G4 | d4 z4 | z4 z2 d2 | d6 g2 | g4 e2 c2 | f6 A2 | B4 z2 B2 | e6 A2 |{c} B4 B4 | e4 A3 A | %27
w: Nacht und|Wind.|Es|ist der|Va- ter mit|sei- nem|Kind; er|hat den|Kna- ben|wohl in dem|
w: tant le|pas.|Il|tient son|fils qu'il re-|chauffe en|bras; la|nuit est|noire; au|gron- de l'o-|
{c} B4 z2 B2 | d6 A2 | B4 z2 G2 | A4 ^F4 | G4 z4 | z8 | z8 | z8 | z4 z2 D2 | G4 z2 D2 | G4 A3 A | %38
w: Arm, er|fass! ihn|siecher, er|hält ihn|warm.||||Mein|Sohn. was|birgst du so|
w: rage, le|vent mu-|git a-|vec fra-|cas.||||Mon|fils, pour|quoi me ca-|
 B4 =B3 B | c2 c2 z4 | z4 z2 c2 | d6 G2 | e6 c2 | d4 d2 G2 | e4 z4 | z4 z2 c2 | _d6 B2 | %47
w: ang dein Ge-|sicht? *|..Sichst,|Va- ter.|du den|Erl- * könig|nicht?|den|Er- len|
w: cher ton vi-|sa- ge?|..Mon|pè- re.|là, je|viens de le|voir!|le|Roi des|
 A2 F2 z2 c2 | _d6 cB | c4 z4 | z4 z2 C2 | E6 E2 | F6 F2 | E3 D D2 z2 | z8 | z8 | z4 z2 c2 | %57
w: kö- nig mit|Kron' und *|Schweif?|"Mein|Sohn. es|ist ein|Ne- bel streif.|||"Du|
w: Aul- nes, le|spee- tre *|noir!|Mon|fils, c'est|un brouil-|lard du soir.|||,,En-|
 d6 B2 | F6 c2 | d6 B2 | F6 c2 | x4 d2 B2 | f4 c4 | c2 (3=Bcd c2 =E2 | F6 F2 | c6 ^c2 | %66
w: lie- bes|Kind. komm,|geh- mit|air! gar|* ne|Spie- le|spiel' _ _ _ ich mit|dir; manch|bun- te|
w: fant, suis|moi dans|ma re-|trai- te,|tous le|jours sont|jours de * * fê- *|te; viens|donc, viens|
 d4 B2 (B=B) | x4 c2 F2 | d6 d d | g3 f (fe) (dc) | (B4- Bc) d c | B4 z2 d2 | e4 e3 e | %73
w: Blu- men- sind *|* dem|Strand; meine *|Mut- ter hat * manch *|gül- * * den Ge|wand." Mein|Va- ter, mein|
w: donc, je te *|un tré-|sor: des jouets|* et des * ha- bits|* * tout brilliants *|d'or." Mon|pè- re, mon|
 (ed) d2 z2 d2 | e4 e3 e | d4 z2 A2 | B2 A2 B2 =B2 | c4 ^c3 c | d4 z4 | z4 z2 ^F2 || %80
w: Va- * ter, und|hö rest du|nicht. was|Er- len- kö- nig|lei- se ser|spricht?|Sei|
w: pè- * re! en-|tends, * en|tends. du|spectre en- tends les|sombres ac- cents!||Mon|
[K:C] B4 z2 ^F F | A2 G G G4 | z2 G2 A2 A2 | B2 G2 D2 E ^F | G4 z4 | z4 z2 G2 | G2 (AB) c2 c ^c | %87
w: ru bleibe *|ru- hig, mein Kind;|in dür- ren|Blät term säu selt der|Wind.|,,Willst,|fei- ner * Kna- be, du|
w: ||et le vent|siffle au fond des *|Rois.|"Pour-|quoi trem- * bler si *|
 d2 G2 e2 d =c | B2 E2 c2 A A | B2 E2 c2 A A | A2 ^GA B2 =G G | A2 D D B2 z G | G2 A B c2 d e | %93
w: mit mir gehn? meine- *|Töch- ter sol- len dich|war- ten schön, meine *|Töch- ter * füh- ren den|nächt- lie- chen Reihn. und|wie- gen und tan- zen und|
w: tu me vois: plus heu-|reux bien- tôt que le|fils des Rois tu ver-|ras mes en fants ja- *|loux de tes droits t'ai-|mer, te ser vir, et soumis|
 f2 d B c2 z G | G2 A B c2 d e | (gf) d B c2 z2 | z4 z2 e2 | f4 f3 f | (fe) e2 z2 e2 | f4 f3 f | %100
w: sin- gen dich ein. sie|wie- gen und tan- zen und|sin- * gen dich ein.,,|Mein|Va- ter, mein|Va- * ter, und|sichst du nicht|
w: * à tes lois dans|leurs bras lè- gers te ber-|cer * à ma voix.,,|Mon|pè- re, mon|pè- * re vois-|tu, sur ma|
 e4 z2 B2 | c2 A2 c2 ^c c | d4 ^d4 | e8 | z4 z2 ^G2 | ^c4 z2 ^G2 | A4 z2 A2 | A4 A3 A | d6 d2 | %109
w: dort, Erl-|königs * Töch ter am|dü- stern|Ort?|Mein|Sohn, mein|Sohn, ich|seh' es ge-|nau, es|
w: tê- du|spectre * tu- les *|noirs en-|fants?|Mon|fils, mon|fils! cour-|bés par les|vents je|
 d2 _B G E2 B2 | A4 A2 A2 | D4 z4 | z8 | z8 | z8 | z4 z2 d2 | _e3 _B B2 e2 | d2 d _e f2 e d | %118
w: schei- nan die al- ten|Wei- den so|gran.||||"Jeh|lie- be dich, mich|reizt de- ne schöne * Ge-|
w: vois les peu- * pli-|ers mou- *|vants.||||"Je|t'ai- me! cède en-|fin à mes vœux suppliants: *|
 _e6 d2 | ^c4 c2 c2 | d4 d3 ^G | A4 A3 A | D4 z2 f2 | _g4 g3 g | _gf f2 z2 f2 | _g4 x3 g | f4 z4 | %127
w: stalt, und|bist du nicht|wil- lig, so|branch ich Ge-|walt!" Mein|Va- ter, mein|Va- * ter, jetzt|fasst mich|an!|
w: * viens|vite ou si|non, re- con-|nais ma puissan-|ce." Mon|pè- re, mon|pè- * re! hè-|las, *|las!|
 f4 ^f3 f | =g4 _e3 e | d6 d2 |[K:Bb] G4 z4 | z4 z2 D2 | D4 D2 D2 |{/A} G2 G2 z2 G2 | %134
w: Erl- kö- nig|hat mir ein|Leid's *|than!|Dem|Va- * ter|gran set's *|
w: le spec- tre|noir m'at- *|tire en|bras!|Le|pè- re fre-|mit: * à|
"^accelerando"[Q:1/4=155] G4 A3 A | B4 z2 B2 | B4 c4 |[Q:1/4=160] d4 z2 d2 | d4 g3 d | %139
w: rei- tet ge-|schwind. er|hält in|* das|äch- zen- de|
w: pas il s'a-|van- l'en|fant op-|sé- râ-|lait vec ef-|
[Q:1/4=164] e4 z4 |[Q:1/4=166] z8 | z4 z2[Q:1/2=160] c2 | c6[Q:1/4=155] _A2 | %143
w: Kind.||er-|reicht den|
w: fort!||lè|pere arrive|
 _d3 B G2[Q:1/4=150] B2 |[Q:1/4=145] _A2[Q:1/4=140] z2[Q:1/4=135] z4[Q:1/4=120] | %145
w: Hof mit Mühe und|Noth;|
w: * et croit qu'il|dort;|
[Q:1/4=40]"^Recit" z2 z/ A/ A/ B/ c2 B A | G2[Q:1/4=50] x2 !fermata!z ^C D2 | z8 |] %148
w: in seinen * Armen * das|Kind war tot.||
w: il le regarde! * ciel l'en|fant est mort!||
V:2
 x8 | x8 | x8 | x8 | x8 | x8 | x8 | x8 | x8 | x8 | x8 | x8 | x8 | x8 | x8 | B4 A2 x3/2 G/ | x8 | %17
w: |||||||||||||||||
w: |||||||||||||||* * cava||
 x8 | x8 | x8 | x8 | x8 | x6 x3/2 A/ | x8 | x8 | x4 B2 B2 | x8 | x8 | x8 |{c} x2 B2 x4 | x8 | x8 | %32
w: |||||||||||||||
w: |||||ses|||* loin|||||||
 x8 | x8 | x8 | x8 | x8 | x8 | x8 | c4 x4 | x8 | x8 | x8 | x8 | x8 | x8 | x8 | x8 | x8 | x8 | x8 | %51
w: |||||||||||||||||||
w: |||||||||||||||||||
 x8 | x8 | x8 | x8 | x8 | x8 | x8 | x8 | x8 | x8 | d6 B2 | x8 | x8 | F2 z2 z2 x2 | x8 | x8 | %67
w: ||||||||||||||||
w: ||||||||||||||||
 c6 F2 | x8 | x8 | B4- B c d c | x8 | x8 | x8 | x6 x e | x8 | x4 B2 =B B | x8 | x8 | x6 x3/2 ^F/ || %80
w: |||||||||* * mir||||
w: ||||||||||||en-|
[K:C] x2 B2 z ^F F F | A2 G2 G4 | x8 | x6 E^F | x8 | x8 | x6 c^c | x8 | x8 | x8 | x2 ^G A x2 =G2 | %91
w: hig * * *|||||||||||
w: * c'est la tempê-|* * te,||||||||||
 x8 | x8 | x8 | x8 | x8 | x8 | x8 | x8 | x8 | e2 e2 x4 | c2 x3/2 A/ c2 ^c c | x8 | x8 | x8 | x8 | %106
w: |||||||||||||||
w: |||||||||* te,|* vois * * *|||||
 x8 | x8 | x8 | d2 _B G x2 B2 | A4 A4 | x8 | x8 | x8 | x8 | x8 | x8 | x8 | x8 | x8 | x8 | x8 | %122
w: ||||||||||||||||
w: ||||||||||||||||
 D2 D2 x4 | x8 | x8 | _g4 g4 | x8 | x8 | g4 _e4 | x6 x3/2 d/ |[K:Bb] x8 | x8 | x6 D2 | %133
w: |||||||ge||||
w: |||||||ses||||
 G4 x2 x3/2 G/ | x8 | B2 B2 x2 B2 | B4 c3 c |{e} x2 d2 x2 d2 | d3 d g3 d | x8 | x8 | x8 | x8 | x8 | %144
w: * er||||men *|||||||
w: * grands||* ce, *|* * pres-||* a * *||||||
 x8 | x4 c c B A | x8 | x8 |] %148
w: ||||
w: |* ô * *|||
V:3
 x8 | x8 | x8 | x8 | x8 | x8 | x8 | x8 | x8 | x8 | x8 | x8 | x8 | x8 | x8 | x8 | x8 | x8 | x8 | %19
 x8 | x8 | x8 | x8 | x8 | x8 | x8 | x8 | x8 | x8 | B2 B2 x4 | x8 | x8 | x8 | x8 | x8 | x8 | x8 | %37
 x8 | x8 | x8 | x8 | x8 | x8 | x8 | x8 | x8 | x8 | x8 | x8 | x8 | x8 | x8 | x8 | x8 | x8 | x8 | %56
 x8 | x8 | x8 | x8 | x8 | x8 | x8 | x8 | x8 | x8 | x8 | x8 | x8 | x8 | x8 | x8 | x8 | x8 | x8 | %75
 x8 | x8 | x8 | x8 | x8 ||[K:C] x2 x2 x4 | x8 | x8 | x8 | x8 | x8 | x8 | x8 | x8 | x8 | x8 | x8 | %92
 x8 | x8 | x8 | x8 | x8 | x8 | x8 | x8 | x8 | x8 | x8 | x8 | x8 | x8 | x8 | x8 | x8 | x8 | x8 | %111
 x8 | x8 | x8 | x8 | x8 | x8 | x8 | x8 | x8 | x8 | x8 | x8 | x8 | x8 | x8 | x8 | x8 | x8 | x8 | %130
[K:Bb] x8 | x8 | x8 | x8 | x8 | x8 | x8 | x2 d2 x4 | x8 | x8 | x8 | x8 | x8 | x8 | x8 | x8 | x8 | %147
 x8 |] %148
V:4
 z8 | z8 | z8 | z8 | z8 | z8 | z8 | z8 | z8 | z8 | z8 | z8 | z8 | z8 |!ppp! z4 z2 A2 | B4 A2 G2 | %16
w: ||||||||||||||Chu|spro- na si|
 A4 A2 A2 | B4 G3 G | d4 z4 | z4 z2 d2 | d4 d2 g2 | g4 e2 c2 | f4 f2 A2 | B4 z2 B2 | e4 e2 A2 | %25
w: lar- di per|t're- mo sen-|tier?|Eil|pa dre col|fiz glio su|bru- no car-|sier; al|pet- to- ri-|
{c} B4 B4 | e4 A3 A |{c} B4 z2 B2 | d4 d2 A2 |{c} B2 B2 z2 G2 | A4 ^F2 F2 | G4 z4 | z8 | z8 | z8 | %35
w: stret- toil|bi- oo si|tien, lo|co- pre col|manto, * lo|scal dial sno|sen.||||
 z4 z2 D2 | G2 G2 z2 D2 | G4 A3 A | B4 =B3 B | c4 z4 | z4 z2 c2 | d4 d2 G2 | e4 e2 c2 | d4 d2 G2 | %44
w: Deh'|fi- glio, cae|tan- ta pi-|u- ra li|fa?|..Ion|ee- diquel *|bian- co fan-|tas- ma co-|
 e4 z4 | z4 z2 c2 | _d4 d2 B2 | A2 F2 z2 c2 | _d4 d2 cB | c4 z4 | z4 z2 C2 | E4 E2 E2 | F4 F2 C2 | %53
w: la?|sul|tergo * *|man- to, un|serto a nel *|cria..,|E|aesoia * cae|sor- je da|
 E2 D D D2 z2 | z8 | z8 | z4 z2 c2 | d4 d2 B2 | F4 F2 c2 | d4 d2 B2 | F6 c2 | d4 d2 B2 | f4 c2 c2 | %63
w: sta- gno ri- cin.|||"A-|ma- bil fan-|einl- lo, deh!|vie- ni con|are! gran|co- pia di|do- ni hoin|
 c2 (3=Bcd c2 =E2 | F6 F2 | c4 c2 ^c2 | d4 B2 (B=B) | c4 c2 F2 | d6 d2 | g2 g f (fe) d c | %70
w: ser- * * * bo per|te; la|ping giain- can-|ta- ta sinat- *|ta- tae di|flor. e|jemne * vi splendon * * di|
 (B4- Bc) d c | B4 z2 d2 | e4 e3 e | (ed) d2 z2 d2 | e4 e3 e | d4 z2 A2 | B2 A A B2 =B B | %77
w: mils- * * le co-|lor.,, Aa!|pa- dre! mio|pa- * dre! non|o- di quel|suon. non|sen- ti quia gio- je euol|
 c4 ^c3 c | d4 z4 | z4 z2 ^F2 ||[K:C] B2 B B B2 ^F F | A2 G G G4 | z2 G2 A2 A A | B2 G G D2 E ^F | %84
w: por- germi in|don?|Fa|co- rre; la vo- ce one|par- ti sen- tir,|del turbo eil con-|fu- so, sel- eaggio * stor|
 G4 z4 | z4 z2 G2 | G2 A B c2 c ^c | d2 G G e2 d=c | B2 E E c2 A A | B2 E E c2 z A | %90
w: nir.|"Gen-|til pargo- * let- to, deh!|rie- ni con me! gli *|spir- tia servir- * li fian|pron- lia tuoi pie le-|
 A2 ^G A B2 =G G | A2 D D B2 z G | G2 A B c2 d e | f2 d B c2 z G | G2 A B c2 d e | (gf) d B c2 z2 | %96
w: glias- tri danzan- * do al|pal- li- doal- bor ver-|ran- noa cantar- * ti can-|zo- ni d'a- nor. ver|rannoa * can- tar- li can-|zo- * ni d'a- mor.,,|
 z4 z2 e2 | f4 f3 f | (fe) e2 z2 e2 | f4 f3 f | e4 z2 B2 | c2 B B c2 ^c c | d4 ^d3 d | e8 | %104
w: Aa!|pa- dre, mio|pa- * dre! Non|ve- dil deh!|tu quell'|omore * cae menan * ea-|ro- le tag-|gin?|
 z4 z2 ^G2 | ^c2 c2 z2 ^G2 | A2 A2 z2 A2 | A4 A3 A | d6 d2 | d2 _B G E2 B B | A4 A2 A2 | D4 z4 | %112
w: T'ae-|che- ta, di-|leito! * quel|ch'om- bre li|par soa|sal- eii eui ra- mi fail|venlo on deg-|giur.|
 z8 | z8 | z8 | z4 z2 d2 | _e3 _B B2 e2 | d2 d _e f2 e d | _e6 d2 | ^c4 c2 c2 | d4 d3 ^G | %121
w: |||"L'a-|mor _ che m'is-|vi- ri frenar * pin non|so, se|nie- ghi se-|guir- mi ta|
 A4 A3 A | D4 z2 f2 | _g4 g3 g | _gf f2 z2 f2 | _g4 g3 g | f4 z2 f2 | f4 ^f3 f | =g4 _e3 e | %129
w: for- zao- pre-|ro,, "Ah!|pa- dre, mio|pa- * dre! deh!|sal- ea- mi,ohi-|me! Jl|bian- co fan-|tas- ma mi|
 d4 d2 d2 |[K:Bb] G4 z4 | z4 z2 D2 | D4 D2 D2 |{/A} G2 G2 z2 G2 |"_accel" G4 A3 A | B4 z2 B2 | %136
w: por- ta con|se.,,|Al|pa- dre d'or-|ro- re la|ro- ee vien|men. al|
 B4 c3 c |{e} d2 d2 z2 d2 | d4 g3 d | e4 z4 | z8 | z4 z2 c2 | c4 _A2 z2 | _d2 d B G2 B B | %144
w: pet- to pin|stretto * il|bim- bo si|tien.||An-|san- te,|ane- lante alla so- glia ri-|
 _A2 z2 z4 | z2 z _A c2 B A | G/ G/ !fermata!z/ G/ G G/ ^C/ D2 z2 | z8 |] %148
w: sia.|ma segno * de|eita * pin il bienbo non da!||
V:5
!f! (3[G,G][G,G][G,G] (3[G,G][G,G][G,G] (3[G,G][G,G][G,G] (3[G,G][G,G][G,G] | %1
"^Jl Red'Alni.""^Musik von FR.SCHUBERT, op.1.""^Wien,bei A.Diabelli und Comp.Graben no1133." (3[G,G][G,G][G,G] (3[G,G][G,G][G,G] (3:2:1!/![G,G]3 (3:2:1!/![G,G]3 | %2
 (3:2:1!/![G,G]3 (3:2:1!/![G,G]3 (3:2:1!/![G,G]3 (3:2:1!/![G,G]3 | %3
 (3[G,G][G,G][G,G] (3[G,G][G,G][G,G] (3:2:1!/![G,G]3 (3:2:1!/![G,G]3 | %4
 (3[G,G][G,G][G,G] (3:2:1!/![G,G]3 (3:2:1!/![G,G]3 (3:2:1!/![G,G]3 | %5
!<(! (3:2:1!/![A,GA]3 (3:2:1!/![A,GA]3 (3:2:1!/![A,GA]3 (3:2:1!/![A,GA]3!<)! | %6
!>(! (3:2:1!/![B,GB]3 (3:2:1!/![B,GB]3 (3:2:1!/![A,^FA]3!>)! (3:2:1!/![A,FA]3 | %7
 (3:2:1!/![G,G]3 (3:2:1!/![G,G]3 (3:2:1!/![G,G]3 (3:2:1!/![G,G]3 | %8
 (3[G,G][G,G][G,G] (3[G,G][G,G][G,G] (3:2:1!/![G,G]3 (3:2:1!/![G,G]3 | %9
 (3:2:1!/![G,G]3 (3:2:1!/![G,G]3 (3:2:1!/![G,G]3 (3:2:1!/![G,G]3 | %10
 (3[G,G][G,G][G,G] (3[G,G][G,G][G,G] (3:2:1!/![G,G]3 (3:2:1!/![G,G]3 | %11
 (3[G,G][G,G][G,G] (3:2:1!/![G,G]3 (3:2:1!/![G,G]3 (3:2:1!/![G,G]3 | %12
!pp! (3:2:1!/![A,GA]3 (3:2:1!/![A,GA]3 (3:2:1!/![A,GA]3 (3:2:1!/![A,GA]3 | %13
 (3:2:1!/![B,GB]3 (3:2:1!/![B,GB]3 (3:2:1!/![B,GB]3 (3:2:1!/![B,=EG]3 | %14
 (3[A,D^F][A,DF][A,DF] (3[A,DF][A,DF][A,DF] (3[A,DF][A,DF][A,DF] (3[A,DF][A,DF][A,DF] | %15
 (3[B,DG][B,DG][B,DG] (3[B,DG][B,DG][B,DG] (3:2:1!/![B,DG]3 (3:2:1!/![B,DG]3 | %16
 (3[A,D^F][A,DF][A,DF] (3[A,DF][A,DF][A,DF] (3:2:1!/![A,DF]3 (3:2:1!/![A,DF]3 | %17
 (3:2:1!/![B,DG]3 (3:2:1!/![B,DG]3 (3[B,DG][B,DG][B,DG] (3[B,DG][B,DG][B,DG] | %18
 (3[A,D^F][A,DF][A,DF] (3[A,DF][A,DF][A,DF] (3:2:1!/![A,DF]3 (3:2:1!/![A,DF]3 | %19
 (3:2:1!/![B,DG]3 (3:2:1!/![B,DG]3 (3:2:1!/![B,DG]3 (3:2:1!/![B,DG]3 | %20
 (3:2:1!/![=B,D=FG]3 (3:2:1!/![B,D=FG]3 (3:2:1!/![B,D=FG]3 (3:2:1!/![B,D=FG]3 | %21
 (3:2:1!/![B,DG]3 (3:2:1!/![B,DG]3 (3:2:1!/![B,DG]3 (3:2:1!/![CEGc]3 | %22
 (3:2:1!/![DFB]3 (3:2:1!/![DFB]3 (3:2:1!/![CEFA]3 (3:2:1!/![CEFA]3 | %23
 (3[DFB][DFB][DFB] (3[DFB][DFB][DFB] (3:2:1!/![DFB]3 (3:2:1!/![DFB]3 | %24
 (3:2:1!/![CE_GA]3 (3:2:1!/![CEGA]3 (3:2:1!/![CEGA]3 (3[CEGA][CEGA][CEGA] | %25
 (3[DFB][DFB][DFB] (3[DFB][DFB][DFB] (3:2:1!/![DFB]3 (3:2:1!/![DFB]3 | %26
!<(! (3:2:1!/![CE_GA]3 (3:2:1!/![CEGA]3 (3:2:1!/![CEGA]3 (3[CEGA][CEGA][CEGA]!<)! | %27
 (3[DFB][DFB][DFB] (3[DFB][DFB][DFB] (3:2:1!/![DFB]3 (3:2:1!/![DFB]3 | %28
 (3:2:1!/![CDA]3 (3:2:1!/![CDA]3 (3:2:1!/![CDA]3 (3:2:1!/![CDA]3 | %29
 (3:2:1!/![B,DG]3 (3:2:1!/![B,DG]3 (3:2:1!/![B,EG]3 (3:2:1!/![B,EG]3 | %30
 (3:2:1!/![A,EG]3 (3:2:1!/![A,EG]3 (3:2:1!/![A,D^F]3 (3:2:1!/![A,DF]3 | %31
!f! (3:2:1!/![G,G]3 (3:2:1!/![G,G]3 (3:2:1!/![G,G]3 (3:2:1!/![G,G]3 | %32
 (3[G,G][G,G][G,G] (3[G,G][G,G][G,G] (3:2:1!/![G,G]3 (3:2:1!/![G,G]3 | %33
 (3:2:1!/![G,G]3 (3:2:1!/![G,G]3 (3:2:1!/![G,G]3 (3:2:1!/![G,G]3 | %34
!pp! (3[G,G][G,G][G,G] (3[G,G][G,G][G,G] (3:2:1!/![G,G]3 (3:2:1!/![G,G]3 | %35
 (3:2:1!/![G,G]3 (3:2:1!/![G,G]3 (3[G,G][G,G][G,G] (3[G,G][G,G][G,G] | %36
 (3[G,G][G,G][G,G] (3[G,G][G,G][G,G] (3[G,G][G,G][G,G] (3[G,G][G,G][G,G] | %37
 (3[G,G][G,G][G,G] (3:2:1!/![G,G]3 (3:2:1!/![A,GA]3 (3[A,GA][A,GA][A,GA] | %38
 (3:2:1!/![B,GB]3 (3:2:1!/![B,GB]3!>(! (3:2:1!/![=B,DF_A=B]3 (3[B,DFGB][B,DFGB][B,DFGB]!>)! | %39
!f! (3[CEGc][CEGc][CEGc] (3[CEGc][CEGc][CEGc] (3:2:1!/![CEGc]3 (3:2:1!/![CEGc]3 | %40
!pp! (3[CEGc][CEGc][CEGc] (3[CEGc][CEGc][CEGc] (3:2:1!/![CEGc]3 (3:2:1!/![CEGc]3 | %41
 (3:2:1!/![DF_A=B]3 (3:2:1!/![DFAB]3 (3:2:1!/![DFAB]3 (3:2:1!/![DFAB]3 | %42
 (3[CEGc][CEGc][CEGc] (3[CEGc][CEGc][CEGc] (3:2:1!/![CEGc]3 (3:2:1!/![CEGc]3 | %43
!>(! (3:2:1!/![DF_A=B]3 (3:2:1!/![DFAB]3!>)! (3:2:1!/![DFAB]3 (3:2:1!/![DFAB]3 | %44
!mf! (3[CEGc][CEGc][CEGc] (3[CEGc][CEGc][CEGc] (3:2:1!/![CEGc]3 (3:2:1!/![CE_Gc]3 | %45
!p! (3[A,CEF][A,CEF][A,CEF] (3:2:1!/![A,CEF]3 (3:2:1!/![A,CEF]3 (3:2:1!/![A,CEF]3 | %46
 (3:2:1!/![G,B,_D=E]3 (3:2:1!/![G,B,DE]3 (3:2:1!/![G,B,DE]3 (3:2:1!/![G,B,DE]3 | %47
!mf! (3[A,CF][A,CF][A,CF] (3[A,CF][A,CF][A,CF] (3:2:1!/![A,CF]3 (3:2:1!/![A,CF]3 | %48
!p! (3:2:1!/![G,B,_D=E]3 (3:2:1!/![G,B,DE]3 (3:2:1!/![G,B,DE]3 (3:2:1!/![G,B,DE]3 | %49
 (3[CF]FF (3FFF (3:2:1!/!F3 (3:2:1!/!F3 | (3:2:1!/!F3 (3:2:1!/!F3 (3:2:1!/!F3 (3:2:1!/!F3 | %51
 (3:2:1!/!F3 (3:2:1!/!F3 (3:2:1!/!F3 (3:2:1!/!F3 | %52
 (3:2:1!/!F3 (3:2:1!/!F3 (3:2:1!/!F3 (3:2:1!/!F3 | %53
 (3[DF][DF][DF] (3[DF][DF][DF] (3:2:1!/![DF]3 (3:2:1!/![DF]3 | %54
 (3:2:1!/![DF]3 (3:2:1!/![DF]3 (3:2:1!/![DF]3 (3:2:1!/![DF]3 | %55
 (3:2:1!/![CE]3 (3:2:1!/![CE]3 (3:2:1!/![CE]3 (3:2:1!/![CE]3 | %56
 (3:2:1!/!D3 (3:2:1!/!D3 (3:2:1!/!C3 (3:2:1!/!C3 | %57
!ppp! (3z [DF][DF] (3z [DF][DF] (3z [DF][DF] (3z [DF][DF] | %58
 (3z [EF][EF] (3z [EF][EF] (3z [EF][EF] (3z [EF][EF] | %59
 (3z [DF][DF] (3z [DF][DF] (3z [DF][DF] (3z [DF][DF] | %60
 (3z [EF][EF] (3z [EF][EF] (3z [EF][EF] (3z [EF][EF] | %61
 (3z [DF][DF] (3z [DF][DF] (3z [DF][DF] (3z [DF][DF] | %62
 (3z [CF][CF] (3z [CF][CF] (3z [CF][CF] (3z [CF][CF] | %63
 (3z [C=E][CE] (3z [CE][CE] (3z [CE][CE] (3z [CE][CE] | %64
 (3z [CF][CF] (3z [CF][CF] (3z [CF][CF] (3z [CF][CF] | %65
 (3z [_EF][EF] (3z [EF][EF] (3z [EF][EF] (3z [EF][EF] | %66
 (3z [DF][DF] (3z [DF][DF] (3z [DF][DF] (3z [DF][DF] | %67
 (3z [EF][EF] (3z [EF][EF] (3z [EF][EF] (3z [EF][EF] | %68
 (3z [DF][DF] (3z [DF][DF] (3z [DF][DF] (3z [DF][DF] | %69
 (3z [DF][DF] (3z [DF][DF] (3z [CE][CE] (3z [CE][CE] | x8 | %71
[I:staff +1] (3[E,B,]!f![I:staff -1][Dd][Dd]!f! (3[Dd][Dd][Dd] (3:2:1!/![Dd]3 (3:2:1!/![Dd]3 | %72
 (3:2:1!/![Dd]3 (3:2:1!/![Dd]3 (3:2:1!/![Dd]3 (3[Dd][Dd][Dd] | %73
 (3[Dd][Dd][Dd] (3:2:1!/![Dd]3 (3:2:1!/![Dd]3 (3:2:1!/![Dd]3 | %74
 (3:2:1!/![Dd]3 (3:2:1!/![Dd]3 (3:2:1!/![Dd]3 (3[Dd][Dd][Dd] | %75
 (3:2:1!/![Dd]3 (3:2:1!/![Dd]3!p! (3:2:1!/![Dd]3 (3[Dd][Dd][Dd] | %76
 (3[Dd][Dd][Dd] (3[Dd][Dd][Dd] (3[Dd][Dd][Dd] (3[Dd][Dd][Dd] | %77
 (3:2:1!/![Dd]3 (3:2:1!/![Dd]3 (3:2:1!/![Dd]3 (3[Dd][Dd][Dd] | %78
 (3:2:1!/![Dd]3 (3:2:1!/![Dd]3 (3:2:1!/![Dd]3 (3:2:1!/![Dd]3 | %79
 (3[Dd][Dd][Dd] (3[=EG^c][EGc][EGc] (3[D^F=B][DFB][DFB] (3[^CF^A][CFA][CFA] || %80
[K:C] (3[D^FB][DFB][DFB] (3[DFB][DFB][DFB] (3[DFB][DFB][DFB] (3[^DF=A][DFA][DFA] | %81
 (3[B,EG][B,EG][B,EG] (3[B,EG][B,EG][B,EG] (3:2:1!/![B,EG]3 (3:2:1!/![B,EG]3 | %82
 (3:2:1!/![B,EG]3 (3:2:1!/![B,EG]3 (3:2:1!/![CEA]3 (3:2:1!/![CEA]3 | %83
 (3:2:1!/![B,DG]3 (3:2:1!/![B,DG]3 (3:2:1!/![CD^F]3 (3:2:1!/![CDF]3 | %84
 (3:2:1!/![B,DG]3 (3:2:1!/![B,DG]3!<(! (3:2:1!/![B,DG]3 (3:2:1!/![B,DG]3!<)! | %85
!>(! (3[B,=FG][B,FG][B,FG] (3[B,=FG][B,FG]!>)![B,FG] (3[B,=FG][B,FG][B,FG] (3[B,=FG][B,FG][B,FG] | %86
!ppp! (3G,CE (3GEC (3G,CE (3GEC | (3G,B,F (3GFC (3G,CE (3GEC | (3B,DE (3^GED (3A,CE (3AEC | %89
 (3B,DE (3^GED (3A,CE (3AEC | (3A,CD (3^FDC (3G,B,D (3GDB, | (3A,CD (3^FDC (3G,B,D (3GDB, | %92
 (3G,B,=F (3GFB, (3G,CE (3GEC | (3G,B,F (3GFB, (3G,CE (3GEC | (3G,B,F (3AFD (3G,CD (3GEC | %95
 (3G,DF (3GFD (3C[Ee][Ee] (3[Ee][Ee][Ee] | %96
 (3:2:1!/![Ee]3 (3:2:1!/![Ee]3 (3:2:1!/![Ee]3 (3:2:1!/![Ee]3 | %97
 (3:2:1!/![Ee]3 (3:2:1!/![Ee]3 (3[Ee][Ee][Ee] (3[Ee][Ee][Ee] | %98
 (3[Ee][Ee][Ee] (3:2:1!/![Ee]3 (3:2:1!/![Ee]3 (3:2:1!/![Ee]3 | %99
 (3:2:1!/![Ee]3 (3:2:1!/![Ee]3 (3[Ee][Ee][Ee] (3[Ee][Ee][Ee] | %100
 (3:2:1!/![Ee]3 (3:2:1!/![Ee]3 (3:2:1!/![Ee]3 (3:2:1!/![Ee]3 | %101
 (3:2:1!/![Ee]3 (3[Ee][Ee][Ee] (3:2:1!/![Ee]3 (3[Ee][Ee][Ee] | %102
 (3:2:1!/![Ee]3 (3:2:1!/![Ee]3 (3:2:1!/![Ee]3 (3[Ee][Ee][Ee] | %103
 (3:2:1!/![Ee]3 (3:2:1!/![Ee]3 (3:2:1!/![Ee]3 (3:2:1!/![Ee]3 | %104
!>(! (3[Ee][Ee][Ee] (3[^FA^d][FAd]!>)![FAd] (3[E^G^c][EGc][EGc] (3[^DG^B][DGB][DGB] | %105
 (3[^C^c][Cc][Cc] (3:2:1!/![Cc]3 (3:2:1!/![Cc]3 (3:2:1!/![Cc]3 | %106
 (3:2:1!/![^C^c]3 (3:2:1!/![Cc]3 (3:2:1!/![Cc]3 (3:2:1!/![Cc]3 | %107
 (3:2:1!/![EGA^c]3 (3:2:1!/![EGAc]3 (3[E=GAc][EGAc][EGAc] (3[E=GAc][EGAc][EGAc] | %108
 (3:2:1!/![=FAd]3 (3:2:1!/![=FAd]3 (3:2:1!/![=FAd]3 (3:2:1!/![=FAd]3 | %109
 (3[E_Bd][EBd][EBd] (3[EBd]"_cresc."[EBd][EBd] (3[EBd][EBd][EBd] (3[EBd][EBd][EBd] | %110
 (3:2:1!/![FAd]3 (3:2:1!/![FAd]3 (3:2:1!/![EA^c]3 (3:2:1!/![EAc]3 | %111
!ff! (3[FAd]!>(![Dd][Dd] (3[Dd][Dd]!>)![Dd] (3:2:1!/![Dd]3 (3:2:1!/![Dd]3 | %112
 (3[Dd][Dd][Dd] (3[Dd][Dd][Dd] (3:2:1!/![Dd]3 (3:2:1!/![Dd]3 | %113
 (3:2:1!/![Dd]3 (3:2:1!/![Dd]3 (3:2:1!/![Dd]3 (3:2:1!/![Dd]3 | %114
!p! (3[Dd][Dd][Dd] (3[Dd][Dd][Dd] (3:2:1!/![Dd]3 (3:2:1!/![Dd]3 | %115
 (3:2:1!/![Dd]3 (3:2:1!/![Dd]3 (3:2:1!/![Dd]3 (3[Dd][Dd][Dd] | %116
!pp! (3[G_B_e][GBe][GBe] (3[GBe][GBe][GBe] (3:2:1!/![GBe]3 (3:2:1!/![GBe]3 | %117
 (3:2:1!/![F_A_cd]3 (3[FAcd][FAcd][FAcd] (3:2:1!/![FAcd]3 (3[FAcd][FAcd][FAcd] | %118
 (3:2:1!/![G_B_e]3 (3:2:1!/![GBe]3 (3:2:1!/![GBe]3 (3:2:1!/![GBe]3 | %119
 (3:2:1!/![=E_B^c]3 (3:2:1!/![=EBc]3 (3:2:1!/![=EBc]3 (3:2:1!/![=EBc]3 | %120
 (3:2:1!/![F=Bd]3 (3:2:1!/![F=Bd]3 (3[FBd][FBd][FBd] (3[FBd][FBd][FBd] | %121
 (3:2:1!/![FBd]3 (3:2:1!/![FBd]3 (3[EA^c][EAc][EAc] (3[EAc][EAc][EAc] | %122
!fff! (3[FAd]!>(![Ff][Ff] (3:2:1!/![Ff]3 (3:2:1!/![Ff]3!>)! (3:2:1!/![Ff]3 | %123
 (3:2:1!/![Ff]3 (3:2:1!/![Ff]3 (3[Ff][Ff][Ff] (3[Ff][Ff][Ff] | %124
 (3[Ff][Ff][Ff] (3:2:1!/![Ff]3 (3:2:1!/![Ff]3 (3:2:1!/![Ff]3 | %125
 (3:2:1!/![Ff]3 (3:2:1!/![Ff]3 (3[Ff][Ff][Ff] (3[Ff][Ff][Ff] | %126
 (3:2:1!/![Ff]3 (3:2:1!/![Ff]3 (3:2:1!/![Ff]3 (3:2:1!/![Ff]3 | %127
 (3:2:1!/![Ff]3 (3:2:1!/![Ff]3 (3[^F^f][Ff][Ff] (3[Ff][Ff][Ff] | %128
 (3:2:1!/![Gg]3 (3:2:1!/![Gg]3 (3[GA_e][GAe][GAe] (3[GAe][GAe][GAe] | %129
 (3:2:1!/![G_Bd]3 (3:2:1!/![GBd]3 (3:2:1!/![^FAd]3 (3:2:1!/![FAd]3 | %130
[K:Bb]!f! (3[G,G][G,G][G,G] (3:2:1!/![G,G]3 (3:2:1!/![G,G]3 (3:2:1!/![G,G]3 | %131
 (3[G,G][G,G][G,G] (3[G,G][G,G][G,G] (3:2:1!/![G,G]3 (3:2:1!/![G,G]3 | %132
 (3:2:1!/![G,G]3 (3:2:1!/![G,G]3 (3:2:1!/![G,G]3 (3:2:1!/![G,G]3 | %133
 (3[G,G][G,G][G,G] (3[G,G][G,G][G,G] (3:2:1!/![G,G]3 (3:2:1!/![G,G]3 | %134
 (3:2:1!/![G,G]3 (3:2:1!/![G,G]3 (3:2:1!/![A,GA]3"_cresc." (3[A,GA][A,GA][A,GA] | %135
 (3[B,GB][B,GB][B,GB] (3[B,GB][B,GB][B,GB] (3:2:1!/![B,GB]3 (3:2:1!/![B,GB]3 | %136
 (3:2:1!/![B,GB]3 (3:2:1!/![B,GB]3 (3:2:1!/![CAc]3 (3[CAc][CAc][CAc] | %137
 (3[DBd][DBd][DBd] (3[DBd][DBd][DBd] (3:2:1!/![DBd]3 (3:2:1!/![DBd]3 | %138
!>(! (3:2:1!/![FG=Bd]3 (3:2:1!/![FGBd]3 (3:2:1!/![FGBd]3!>)! (3[FGBd][FGBd][FGBd] | %139
!ff! (3[EGc][EGc][EGc] (3[EGc][EGc][EGc] (3:2:1!/![EGc]3 (3:2:1!/![EGc]3 | %140
 (3:2:1!/![Cc]3 (3:2:1!/![Cc]3!<(! (3:2:1!/![Cc]3 (3:2:1!/![Cc]3!<)! | %141
 (3:2:1!/![Cc]3!<(! (3:2:1!/![Cc]3 (3:2:1!/![Cc]3 (3:2:1!/![Cc]3!<)! | %142
 (3:2:1!/![CE_Ac]3 (3:2:1!/![CEAc]3 (3:2:1!/![CEAc]3 (3:2:1!/![CEAc]3 | %143
 (3:2:1!/![_D_FGB]3 (3[DFGB][DFGB][DFGB] (3[DFGB][DFGB][DFGB] (3[DFGB][DFGB][DFGB] | %144
 (3[CE_A]!>(![CEA][CEA] (3:2:1!/![CEA]3!>)! (3:2:1!/![CEA]3 (3:2:1!/![CEA]3 |!pp! [CE_A]4 z4 | %146
!p! z !fermata![B,=EG]2 z z2!f!"^Andante." [=A,CD^F] z | !fermata![G,B,DG]2 z2 z4 |] %148
V:6
 z8 |!f! (3(G,,A,,B,, (3C,D,E, !wedge!D,2) !wedge!B,,2 | !wedge!G,,2 z2 z4 | %3
 (3(G,,A,,B,, (3C,D,E, !wedge!D,2) !wedge!B,,2 | !wedge!G,,2 z2 z4 | [C,,C,]6 [^C,,^C,]2 | %6
 [D,,D,]8 | G,,2 z2 z4 | (3(G,,A,,B,, (3C,D,E, !wedge!D,2) !wedge!B,,2 | !wedge!G,,2 z2 z4 | %10
 (3(G,,A,,B,, (3C,D,E, !wedge!D,2) !wedge!B,,2 | G,,2 z2 z4 | (([C,,C,]8 | [^C,,^C,]8)) | %14
 (3D,,^F,,G,, (3A,,=B,,^C, !>!D,4- | D,8 | (3D,,^F,,G,, (3A,,=B,,^C, !>!D,4- | D,8 | %18
 (3D,,^F,,G,, (3A,,=B,,^C, !>!D,4- | D,8 | [G,,,G,,]8 | C,,6 E,,2 | F,,2 z2 F,,,2 z2 | %23
 (3(B,,C,D, (3E,F,_G,) F,2 B,,2 | !>!B,,,8 | (3(B,,C,D, (3E,F,_G,) F,2 !wedge!B,,2 | !>!B,,,8 | %27
 (3(B,,C,D, (3E,F,_G,) F,2 !wedge!B,,2 | ^F,,8 | !wedge!G,,2 z2 !wedge!E,,2 z2 | %30
 !wedge!C,,2 z2 !wedge!D,,2 z2 | G,,,2 z2 z4 | (3(G,,A,,B,, (3C,D,E, !wedge!D,2) !wedge!B,,2 | %33
 !wedge!G,,2 z2 z4 | (3(G,,A,,B,, (3C,D,E, !wedge!D,2) !wedge!B,,2 | G,,2 z2 z4 | z8 | z8 | %38
 z4 G,,4 | (3(C,,E,,F,, (3G,,A,,=B,, C,4) | (3(C,,E,,F,, (3G,,A,,=B,, C,4-) | C,8 | %42
 (3(C,,E,,F,, (3G,,A,,=B,, C,4-) | C,8 | (3(C,,E,,F,, (3G,,A,,=B,, C,4) | %45
 (3(F,,A,,_B,, (3C,D,=E, F,4-) | F,8 | (3G,,A,,B,, (3C,D,=E, F,4- | F,8 | %49
 (3(F,,,A,,,B,,, (3C,,D,,=E,, F,,4-) | F,,8 | z8 | z8 | %53
 (3F,F,F, (3F,F,F, (3:2:1!/!F,3 (3:2:1!/!F,3 | %54
 (3:2:1!/!F,3 (3:2:1!/!F,3 (3:2:1!/!F,3 (3:2:1!/!F,3 | %55
 (3:2:1!/!G,3 (3:2:1!/!G,3 (3:2:1!/!G,3 (3:2:1!/!G,3 | %56
 (3:2:1!/![F,B,]3 (3:2:1!/![F,B,]3 (3:2:1!/![F,A,]3 (3:2:1!/![F,A,]3 | %57
 (3x [F,B,][F,B,] (3x [F,B,][F,B,] (3x [F,B,][F,B,] (3x [F,B,][F,B,] | %58
 (3x [F,A,][F,A,] (3x [F,A,][F,A,] (3x [F,A,][F,A,] (3x [F,A,][F,A,] | %59
 (3x [F,B,][F,B,] (3x [F,B,][F,B,] (3x [F,B,][F,B,] (3x [F,B,][F,B,] | %60
 (3x [F,A,][F,A,] (3x [F,A,][F,A,] (3x [F,A,][F,A,] (3x [F,A,][F,A,] | %61
 (3x [F,B,][F,B,] (3x [F,B,][F,B,] (3x [F,B,][F,B,] (3x [F,B,][F,B,] | %62
 (3x A,A, (3x A,A, (3x A,A, (3x A,A, | %63
 (3x [G,B,][G,B,] (3x [G,B,][G,B,] (3x [G,B,][G,B,] (3x [G,B,][G,B,] | %64
 (3x [F,A,][F,A,] (3x [F,A,][F,A,] (3x [F,A,][F,A,] (3x [F,A,][F,A,] | %65
 (3x [F,A,][F,A,] (3x [F,A,][F,A,] (3x [F,A,][F,A,] (3x [F,A,][F,A,] | %66
 (3x [F,B,][F,B,] (3x [F,B,][F,B,] (3x [F,B,][F,B,] (3x [F,B,][F,B,] | %67
 (3x [F,A,][F,A,] (3x [F,A,][F,A,] (3x [F,A,][F,A,] (3x [F,A,][F,A,] | %68
 (3x [F,B,][F,B,] (3x [F,B,][F,B,] (3x [F,B,][F,B,] (3x [F,B,][F,B,] | %69
 (3x [G,=B,][G,B,] (3x [G,B,][G,B,] (3x G,G, (3x G,G, | %70
 (3z [F,B,D][F,B,D] (3z [F,B,D][F,B,D] (3z [E,F,A,C][E,F,A,C] (3z [E,F,A,C][E,F,A,C] | %71
 [B,,,B,,]2 z2 z2 (!>![=B,,=B,]2 | [C,C]4) [A,,A,]4 | [^F,,^F,]4 z2 (!>![=B,,=B,]2 | %74
 [C,C]4) [A,,A,]4 | [^F,,^F,]4 z2 (F,2 | G,2 ^F,2 G,2 ^G,2) | (A,4 B,4 |!<(! =B,8-)!<)! | %79
!>(! B,2 !wedge!=E,2!>)! !wedge!^F,2 !wedge!F,2 ||[K:C] B,,8 | E,,8- | %82
 E,,2 !wedge!E,,2 !wedge!C,,2 !wedge!C,,2 | D,,2 z2 D,,2 z2 | G,,4 D,,2 B,,,2 | G,,,4 A,,,2 B,,,2 | %86
 [C,,C,] z [C,,C,] z [C,,C,] z [C,,C,] z | [C,,C,] z [C,,C,] z [C,,C,] z [C,,C,] z | %88
 [E,,E,] z [E,,E,] z A,, z A,, z | [E,,E,] z [E,,E,] z A,, z A,, z | %90
 [D,,D,] z [D,,D,] z G,, z G,, z | [D,,D,] z [D,,D,] z G,, z G,, z | %92
 [G,,,G,,]2 z [G,,,G,,] [G,,,G,,]2 z [G,,,G,,] | [G,,,G,,]2 z [G,,,G,,] [C,,C,]2 z [G,,,G,,] | %94
 [G,,,G,,]2 z [G,,,G,,] [G,,,G,,]2 z [G,,,G,,] | [G,,,G,,]2 z [G,,,G,,] [C,,C,]2 z2 | %96
 z4 z2 (([^C,^C]2 | [D,D]4)) [B,,B,]4 | [^G,,^G,]4 z2 (([^C,^C]2 | [D,D]4)) [B,,B,]4 | %100
 [^G,,^G,]4 z2 =G,2 | A,2 ^G,2 A,2 ^A,2 | B,4 C4 | ^C8- | C2 !wedge!^F,2 !wedge!^G,2 !wedge!G,2 | %105
 ^C,4 z4 | z8 | ([A,,A,]8 | D,4) z4 | [G,,G,]8 | [A,,A,]4 [A,,A,]4 | [D,,D,]2 z2 z4 | %112
 (3(D,E,F, (3G,A,_B, !wedge!A,2) !wedge!F,2 | !wedge!D,2 z2 z4 | %114
 (3(D,E,F, (3G,A,_B, !wedge!A,2) !wedge!F,2 | !wedge!D,2 z2 z4 | [_E,,_E,]8 | [_E,,_E,]8 | %118
 [_E,,_E,]8 | [G,,G,]8 | [^G,,^G,]8 | [A,,A,]8 | [D,,D,]4 z2 ([D,D]2 | [_E,_E]4) [C,C]4 | %124
 [A,,A,]4 z2 ([D,D]2 | [_E,_E]4) [C,C]4 | [A,,A,]4 z4 | [B,^D]4 [CD]4 | [_B,D]4 [C,C]4 | %129
 [D,D]4 [D,D]4 | %130
[K:Bb] (3[G,,,G,,][G,,,G,,][G,,,G,,] (3:2:1!/![G,,,G,,]3 (3:2:1!/![G,,,G,,]3 (3:2:1!/![G,,,G,,]3 | %131
 (3(G,,A,,B,, (3C,D,E,) !wedge!D,2 !wedge!B,,2 | %132
 (3:2:1!/![G,,,G,,]3 (3:2:1!/![G,,,G,,]3 (3:2:1!/![G,,,G,,]3 (3:2:1!/![G,,,G,,]3 | %133
 (3(G,,A,,B,, (3C,D,E,) !wedge!D,2 !wedge!B,,2 | %134
 (3:2:1!/![G,,,G,,]3 (3:2:1!/![G,,,G,,]3 (3:2:1!/![G,,,G,,]3 (3[G,,,G,,][G,,,G,,][G,,,G,,] | %135
 (3(G,,A,,B,, (3C,D,E,) !wedge!D,2 !wedge!B,,2 | %136
 (3:2:1!/![G,,,G,,]3 (3:2:1!/![G,,,G,,]3 (3:2:1!/![G,,,G,,]3 (3[G,,,G,,][G,,,G,,][G,,,G,,] | %137
 (3(G,,A,,B,, (3C,D,E,) !wedge!D,2 !wedge!B,,2 | %138
 (3:2:1!/![G,,,G,,]3 (3:2:1!/![G,,,G,,]3 (3:2:1!/![G,,,G,,]3 (3[G,,,G,,][G,,,G,,][G,,,G,,] | %139
 (3(C,,D,,E,, (3F,,G,,A,,) !wedge!G,,2 !wedge!E,,2 | [C,,C,]4 [_D,,_D,]2 [=D,,=D,]2 | %141
 [E,,E,]2 [=E,,=E,]2 [F,,F,]2 [G,,G,]2 | %142
 (3:2:1!/![_A,,_A,]3 (3:2:1!/![A,,A,]3 (3:2:1!/![A,,A,]3 (3:2:1!/![A,,A,]3 | %143
 (3:2:1!/![_A,,_A,]3 (3[A,,A,][A,,A,][A,,A,] (3[A,,A,][A,,A,][A,,A,] (3[A,,A,][A,,A,][A,,A,] | %144
 (3[_A,,_A,][A,,A,][A,,A,] (3:2:1!/![A,,A,]3 (3:2:1!/![A,,A,]3 (3:2:1!/![A,,A,]3 | [C,E,_A,]4 z4 | %146
 z !fermata![^C,,^C,]2 z z2 [D,,D,] z | [G,,,G,,]2 z2 z4 |] %148
V:7
 x8 | x8 | x8 | x8 | x8 | x8 | x8 | x8 | x8 | x8 | x8 | x8 | x8 | x8 | x8 | x8 | x8 | x8 | x8 | %19
 x8 | x8 | x8 | x8 | x8 | x8 | x8 | x8 | x8 | x8 | x8 | x8 | x8 | x8 | x8 | x8 | x8 | x8 | x8 | %38
 x8 | x8 | x8 | x8 | x8 | x8 | x8 | x8 | x8 | x8 | x8 | %49
 (3[F,A,]F,F, (3F,F,F, (3:2:1!/!F,3 (3:2:1!/!F,3 | %50
 (3:2:1!/!F,3 (3:2:1!/!F,3 (3:2:1!/!F,3 (3:2:1!/!F,3 | %51
 (3:2:1!/!F,3 (3:2:1!/!F,3 (3:2:1!/!F,3 (3:2:1!/!F,3 | %52
 (3:2:1!/!F,3 (3:2:1!/!F,3 (3:2:1!/!F,3 (3:2:1!/!F,3 | B,,8 | %54
 z2 !wedge!B,,2 !wedge!F,,2 !wedge!D,,2 | !wedge!E,,2 z2 !wedge!C,,2 z2 | %56
 !wedge!F,,2 z2 !wedge!F,,2 z2 | [B,,,B,,] z [B,,,B,,] z [B,,,B,,] z [B,,,B,,] z | %58
 [B,,,B,,] z [B,,,B,,] z [B,,,B,,] z [B,,,B,,] z | %59
 [B,,,B,,] z [B,,,B,,] z [B,,,B,,] z [B,,,B,,] z | %60
 [B,,,B,,] z [B,,,B,,] z [B,,,B,,] z [B,,,B,,] z | %61
 [B,,,B,,] z [B,,,B,,] z [B,,,B,,] z [B,,,B,,] z | [C,,C,] z [C,,C,] z [C,,C,] z [C,,C,] z | %63
 [C,,C,] z [C,,C,] z [C,,C,] z [C,,C,] z | [F,,,F,,] z [F,,,F,,] z [F,,,F,,] z [F,,,F,,] z | %65
 [F,,,F,,] z [F,,,F,,] z [F,,,F,,] z [F,,,F,,] z | %66
 [B,,,B,,] z [B,,,B,,] z [B,,,B,,] z [B,,,B,,] z | %67
 [F,,,F,,] z [F,,,F,,] z [F,,,F,,] z [F,,,F,,] z | %68
 [B,,,B,,] z [B,,,B,,] z [B,,,B,,] z [B,,,B,,] z | [G,,,G,,] z [G,,,G,,] z [C,,C,] z [C,,C,] z | %70
 F,, z F,, z F,, z F,, z | x8 | x8 | x8 | x8 | x8 | x8 | x8 | x8 | x8 ||[K:C] x8 | x8 | x8 | x8 | %84
 x8 | x8 | x8 | x8 | x8 | x8 | x8 | x8 | x8 | x8 | x8 | x8 | x8 | x8 | x8 | x8 | x8 | x8 | x8 | %103
 x8 | x8 | x8 | x8 | x8 | x8 | x8 | x8 | x8 | x8 | x8 | x8 | x8 | x8 | x8 | x8 | x8 | x8 | x8 | %122
 x8 | x8 | x8 | x8 | x8 | x8 | x8 | x8 |[K:Bb] x8 | x8 | x8 | x8 | x8 | x8 | x8 | x8 | x8 | x8 | %140
 x8 | x8 | x8 | x8 | x8 | x8 | x8 | x8 |] %148

